X: 1
T: Corsair, The
M: 4/4
L: 1/8
R: hornpipe
K: Emin
|: A | B2eB dBAF | GFEG FB,B,A, | B,EGE FAdc | Bdgb afdB |
~e3B dBAF | GFEG FB,B,A, | B,EGE FAdc |1 BAFG E3 :|2 BAFG EFG ||
|: A | BG~G2 AF~F2 | Be~e2 fddc | Bdgb adfa | gbeg fedc | 
BG~G2 AF~F2 | Be~e2 fddc | Bdgb afdc |1 BAFG EFG :|2 BAFG E3 ||
